assets/High-heeled shoe/Flat/high-heeled_shoe_flat.svg

<svg width="32" height="32" viewBox="0 0 32 32" fill="none" xmlns="http://www.w3.org/2000/svg">
<path d="M6 16.4105C8.65 16.4105 10 17.8305 10 19.9805V25.6605C10 27.1805 11.23 28.4105 12.75 28.4105L28.37 28.4605C29.38 28.4605 29.51 27.2905 28.79 26.3505C28.79 26.3505 27.93 25.1105 24.23 21.4105C22.03 19.2305 13.47 8.88048 10.37 5.13048C9.54 4.13048 8.16 3.72048 6.95 4.20048C4.64 5.12048 3 7.37048 3 10.0105V16.6305L5.08 16.4405L6 16.4105Z" fill="#CA0B4A"/>
<path d="M5.01 16.4105H3V28.4105H5.01V16.4105Z" fill="#533566"/>
<path d="M23.56 20.6805C21.41 18.5205 12.64 7.90046 10.24 4.99046C10.02 4.71046 9.72 4.52046 9.39 4.41046C8.89 4.96046 8.86 5.80046 9.35 6.38046L21.75 20.9905C22.05 21.3405 22.47 21.5205 22.89 21.5205C23.23 21.5205 23.58 21.4005 23.86 21.1605C23.9 21.1305 23.9 21.1605 23.93 21.1305C23.81 21.0105 23.7 20.8205 23.56 20.6805Z" fill="#1C1C1C"/>
</svg>

<svg xmlns="http://www.w3.org/2000/svg" width="32" height="32" fill="none"><path fill="#CA0B4A" d="M6 16.41c2.65 0 4 1.42 4 3.57v5.68c0 1.52 1.23 2.75 2.75 2.75l15.62.05c1.01 0 1.14-1.17.42-2.11 0 0-.86-1.24-4.56-4.94-2.2-2.18-10.76-12.53-13.86-16.28-.83-1-2.21-1.41-3.42-.93A6.257 6.257 0 0 0 3 10.01v6.62l2.08-.19.92-.03Z"/><path fill="#533566" d="M5.01 16.41H3v12h2.01v-12Z"/><path fill="#1C1C1C" d="M23.56 20.68C21.41 18.52 12.64 7.9 10.24 4.99c-.22-.28-.52-.47-.85-.58-.5.55-.53 1.39-.04 1.97l12.4 14.61c.3.35.72.53 1.14.53.34 0 .69-.12.97-.36.04-.03.04 0 .07-.03-.12-.12-.23-.31-.37-.45Z"/></svg>
